X:1
T:Title
%%score { 1 | 2 }
L:1/8
M:4/4
K:Bb
V:1 treble nm="Grand Piano"
V:2 bass 
V:1
 z4 z2[Q:1/4=110] [DF]2 | [DF]2 [DG]2 [DA]2 [DB]2 |[M:9/8] [EB]2 [EG]- [EG] [EA]2- [EA] [EF]2 | %3
[M:4/4] [Fd]2 [DB]2 [EA]2 [F_A]2 |[M:3/4] G6 |[M:1/4] G2 |[M:4/4] G2 =B2 d2 e2 | %7
[M:9/8] [Fd]2 [Ec]- [Ec] [Ec]2- [Ec] [EG]2 |[M:4/4] [=EG]2 [EA]2 [EB]2 [EG]2 |[M:3/4] c6 | %10
[M:1/4] F2 |[M:4/4] [Fd]2 [DB]4 [EA][Ec] | [DB]6 [DF]2 | [EG]2 [Ge]4 [FG][Fd] |[M:3/4] [Ec]6 | %15
[M:1/4] [=EG]2 |[M:4/4] A2 A2 G2 F2 | %17
[M:9/8] B2 [_AB]- [AB] [GB]2- [GB] [^Fc]2[Q:1/4=108][Q:1/4=107][Q:1/4=105][Q:1/4=103][Q:1/4=101][Q:1/4=100][Q:1/4=98][Q:1/4=96][Q:1/4=95][Q:1/4=93][Q:1/4=91][Q:1/4=89][Q:1/4=88][Q:1/4=86][Q:1/4=84] | %18
[M:4/4] d F3 c3 [DB] |[M:3/4] [DB]6 |] %20
V:2
 z4 z2 [B,,B,]2 | [B,,B,]2 [B,,B,]2 [B,,F,]2 [B,,F,]2 | %2
[M:9/8] [C,F,]2 [C,C]- [C,C] [F,C]2- [F,C] [F,A,]2 |[M:4/4] [B,,B,]2 [B,,F,]2 [C,F,]2 [D,B,]2 | %4
[M:3/4] [E,B,E]6 |[M:1/4] [E,B,E]2 |[M:4/4][K:treble] [G,B,F]2 [G,DF]2 [G,B,F]2 [G,G]2 | %7
[M:9/8][K:bass] [C,G,]2 [C,G,]- [C,G,] [C,G,]2- [C,G,] [C,C]2 | %8
[M:4/4] [C,B,]2 [C,A,]2 [C,G,]2 [C,B,]2 |[M:3/4] [F,A,E]6 |[M:1/4] [F,A,]2 | %11
[M:4/4] [B,,B,]2 [B,,B,]4 [F,C][F,A,] | [B,,F,B,]6 [B,,B,]2 | [E,B,]2 [E,B,]4 [G,B,][G,B,] | %14
[M:3/4] [C,C]6 |[M:1/4] [C,C]2 |[M:4/4] [F,CE]2 [F,CE]2 [G,CE]2 [A,CE]2 | %17
[M:9/8] [B,D]2 [D,B,]- [D,B,] [E,E]2- [E,E] [E,B,]2 |[M:4/4] [F,B,F] [F,B,D]3 [F,A,E]3 [B,,F,B,] | %19
[M:3/4] [B,,F,B,]6 |] %20

